Numix/48x48/categories/applications-chat.svg

<?xml version="1.0" encoding="UTF-8" standalone="no"?>
<svg
   xmlns:dc="http://purl.org/dc/elements/1.1/"
   xmlns:cc="http://creativecommons.org/ns#"
   xmlns:rdf="http://www.w3.org/1999/02/22-rdf-syntax-ns#"
   xmlns:svg="http://www.w3.org/2000/svg"
   xmlns="http://www.w3.org/2000/svg"
   xmlns:sodipodi="http://sodipodi.sourceforge.net/DTD/sodipodi-0.dtd"
   xmlns:inkscape="http://www.inkscape.org/namespaces/inkscape"
   width="48"
   height="48"
   viewBox="0 0 38.4 38.4"
   id="svg2"
   version="1.1"
   inkscape:version="0.91 r"
   sodipodi:docname="applications-chat.svg">
  <metadata
     id="metadata14">
    <rdf:RDF>
      <cc:Work
         rdf:about="">
        <dc:format>image/svg+xml</dc:format>
        <dc:type
           rdf:resource="http://purl.org/dc/dcmitype/StillImage" />
        <dc:title />
      </cc:Work>
    </rdf:RDF>
  </metadata>
  <defs
     id="defs12" />
  <sodipodi:namedview
     pagecolor="#ffffff"
     bordercolor="#666666"
     borderopacity="1"
     objecttolerance="10"
     gridtolerance="10"
     guidetolerance="10"
     inkscape:pageopacity="0"
     inkscape:pageshadow="2"
     inkscape:window-width="1920"
     inkscape:window-height="1056"
     id="namedview10"
     showgrid="true"
     inkscape:zoom="14.052817"
     inkscape:cx="17.633746"
     inkscape:cy="13.783607"
     inkscape:window-x="0"
     inkscape:window-y="24"
     inkscape:window-maximized="1"
     inkscape:current-layer="svg2">
    <inkscape:grid
       type="xygrid"
       id="grid4142" />
  </sodipodi:namedview>
  <g
     style="fill:#8ccd7c"
     id="g4"
     transform="matrix(0.99705263,0,0,0.99705263,0.25600003,0.25600003)">
    <path
       d="m 11.136719,12.039062 c -3.855469,0 -6.980469,3.144532 -6.980469,7.019532 0,0.242187 0.00391,0.480468 0.027344,0.714844 0.058594,1.503906 -0.027344,3.675781 1.71875,8.941406 1.484375,4.480468 2.617187,4.386718 2.617187,4.386718 l 1.742188,-0.878906 c 0,0 -0.871094,-1.753906 -0.871094,-3.507812 0,-0.84375 0.199219,-1.882813 0.410156,-2.742188 0.429688,0.08203 0.882813,0.109375 1.335938,0.109375 3.851562,0 6.976562,-3.144531 6.976562,-7.023437 0,-3.875 -3.125,-7.019532 -6.976562,-7.019532 z"
       id="path6"
       inkscape:connector-curvature="0" />
    <path
       d="m 26.863281,25.960938 c 3.855469,0 6.980469,-3.144532 6.980469,-7.019532 0,-0.242187 -0.0039,-0.480468 -0.02734,-0.714844 C 33.75782,16.722656 33.84375,14.550781 32.09766,9.285156 30.613281,4.804688 29.480469,4.898438 29.480469,4.898438 l -1.742188,0.878906 c 0,0 0.871094,1.753906 0.871094,3.507812 0,0.84375 -0.199219,1.882813 -0.410156,2.742188 -0.429688,-0.08203 -0.882813,-0.109375 -1.335938,-0.109375 -3.851562,0 -6.976562,3.144531 -6.976562,7.023437 0,3.875 3.125,7.019532 6.976562,7.019532 z"
       id="path8"
       inkscape:connector-curvature="0" />
  </g>
</svg>

<svg width="47.5" xmlns="http://www.w3.org/2000/svg" height="47.5" viewBox="0 0 38 38" xmlns:xlink="http://www.w3.org/1999/xlink">
<g style="fill:#8ccd7c">
<path d="M 11.136719 12.039062 C 7.28125 12.039062 4.15625 15.183594 4.15625 19.058594 C 4.15625 19.300781 4.160156 19.539062 4.183594 19.773438 C 4.242188 21.277344 4.15625 23.449219 5.902344 28.714844 C 7.386719 33.195312 8.519531 33.101562 8.519531 33.101562 L 10.261719 32.222656 C 10.261719 32.222656 9.390625 30.46875 9.390625 28.714844 C 9.390625 27.871094 9.589844 26.832031 9.800781 25.972656 C 10.230469 26.054688 10.683594 26.082031 11.136719 26.082031 C 14.988281 26.082031 18.113281 22.9375 18.113281 19.058594 C 18.113281 15.183594 14.988281 12.039062 11.136719 12.039062 Z "/>
<path d="M 26.863281 25.960938 C 30.71875 25.960938 33.84375 22.816406 33.84375 18.941406 C 33.84375 18.699219 33.839844 18.460938 33.816406 18.226562 C 33.757812 16.722656 33.84375 14.550781 32.097656 9.285156 C 30.613281 4.804688 29.480469 4.898438 29.480469 4.898438 L 27.738281 5.777344 C 27.738281 5.777344 28.609375 7.53125 28.609375 9.285156 C 28.609375 10.128906 28.410156 11.167969 28.199219 12.027344 C 27.769531 11.945312 27.316406 11.917969 26.863281 11.917969 C 23.011719 11.917969 19.886719 15.0625 19.886719 18.941406 C 19.886719 22.816406 23.011719 25.960938 26.863281 25.960938 Z "/>
</g>
</svg>
